packages/foundations/assets/icons/functional/images/notification/bell_disabled_16.svg

<svg width="16" height="16" viewBox="0 0 16 16" fill="none" xmlns="http://www.w3.org/2000/svg">
<g clip-path="url(#clip0_187_141)">
<path fill-rule="evenodd" clip-rule="evenodd" d="M12.5217 6.84881L12.5218 9.70146C12.5218 10.5895 12.6205 10.8362 13.0484 11.176L13.2247 11.3093C13.4746 11.481 13.5996 11.7308 13.5996 11.9805C13.5996 12.3551 13.3195 12.7766 12.881 12.7766H9.60071V12.7922C9.60071 13.6819 8.88215 14.4 7.99175 14.4C7.22537 14.4 6.4991 13.7846 6.39549 12.9749L8.17127 11.1992L11.1315 11.2L11.0721 10.9627C10.9822 10.5647 10.9371 10.1398 10.9296 9.46048L10.9281 8.44241L12.5217 6.84881ZM7.99175 1.60001C9.51924 1.60001 10.7606 2.23105 11.555 3.31306L12.2339 2.63432C12.5463 2.3219 13.0529 2.3219 13.3653 2.63432C13.6537 2.92271 13.7081 3.43676 13.3653 3.76569C10.1667 6.96721 6.96668 10.1672 3.76528 13.3657C3.45286 13.6781 2.94633 13.6781 2.63391 13.3657C2.34552 13.0773 2.29318 12.6282 2.63391 12.2343C2.77143 12.0939 2.91012 11.9547 3.04999 11.8168L3.081 11.7496C3.3129 11.2222 3.46183 10.6403 3.46183 9.65461V6.79805C3.46183 3.69174 5.22695 1.60001 7.99175 1.60001ZM8.00743 3.20784C6.24223 3.20784 5.07071 4.44098 5.07071 6.59515V9.2644C5.07071 9.45844 5.0677 9.6374 5.06064 9.8069L10.3835 4.48368C9.88586 3.65598 9.06678 3.20784 8.00743 3.20784Z" fill="#1A1C1F"/>
</g>
<defs>
<clipPath id="clip0_187_141">
<rect width="16" height="16" fill="white"/>
</clipPath>
</defs>
</svg>

<svg xmlns="http://www.w3.org/2000/svg" width="16" height="16" fill="none"><g clip-path="url(#a)"><path fill="#1A1C1F" fill-rule="evenodd" d="M12.522 6.849V9.7c0 .888.098 1.135.526 1.475l.177.133c.25.172.375.422.375.672 0 .374-.28.796-.719.796h-3.28v.015c0 .89-.719 1.608-1.61 1.608-.766 0-1.492-.615-1.596-1.425l1.776-1.776 2.96.001-.059-.237c-.09-.398-.135-.823-.142-1.503l-.002-1.018zM7.992 1.6c1.527 0 2.769.631 3.563 1.713l.679-.679a.8.8 0 0 1 1.131 0c.289.289.343.803 0 1.132q-4.797 4.802-9.6 9.6a.8.8 0 0 1-1.131 0c-.288-.289-.34-.738 0-1.132q.206-.21.416-.417l.031-.067c.232-.528.38-1.11.38-2.095V6.798c0-3.106 1.766-5.198 4.53-5.198m.015 1.608c-1.765 0-2.936 1.233-2.936 3.387v2.67q0 .288-.01.542l5.323-5.323c-.498-.828-1.317-1.276-2.377-1.276" clip-rule="evenodd"/></g><defs><clipPath id="a"><path fill="#fff" d="M0 0h16v16H0z"/></clipPath></defs></svg>
